public/advantage-ddos.svg

<svg width='58' height='83' viewBox='0 0 58 83' fill='none' xmlns='http://www.w3.org/2000/svg'><path d='M49.6504 0.636929L56.3334 4.49594C56.471 4.59122 56.5807 4.72156 56.651 4.87347C56.7214 5.02538 56.7498 5.19333 56.7334 5.35992V39.2599C56.7334 54.9839 33.5155 80.5599 32.5235 81.6449C32.3682 81.8162 32.1886 81.9638 31.9904 82.0829C31.8301 82.1824 31.6485 82.242 31.4605 82.2569C30.8185 82.2959 20.7894 82.8289 13.8424 78.8819V78.8869L7.07438 74.9789C5.06451 73.9405 3.38755 72.3573 2.23539 70.4104C1.08323 68.4635 0.502515 66.2315 0.559487 63.9699V30.0699C0.602386 29.6067 0.749415 29.1592 0.989785 28.7609C1.23016 28.3626 1.55758 28.0238 1.94743 27.7699C11.2174 22.4219 19.8584 14.8479 24.5054 8.00192C24.9754 7.31092 25.6304 6.93594 26.1054 7.08194C30.7444 8.55894 39.3824 6.15894 48.7254 0.762936C48.8528 0.655211 49.0088 0.586663 49.1744 0.565548C49.3399 0.544434 49.5081 0.571636 49.6585 0.643917L49.6504 0.636929Z' fill='white'/><path d='M1.93778 27.7623C11.2078 22.4143 19.8488 14.8403 24.4958 7.99431C24.9658 7.30331 25.6207 6.9283 26.0957 7.0743C30.7347 8.5513 39.3728 6.1513 48.7168 0.755296C48.8442 0.647458 49.0001 0.578843 49.1657 0.557725C49.3313 0.536607 49.4994 0.563901 49.6498 0.636308L56.3318 4.49532C56.1821 4.42545 56.0156 4.39991 55.8518 4.42171C55.6881 4.4435 55.5339 4.51171 55.4078 4.6183C46.0598 10.0183 37.4278 12.4183 32.7848 10.9363C32.3128 10.7883 31.6547 11.1673 31.1847 11.8573C26.5387 18.7023 17.8987 26.2763 8.62675 31.6263C8.23615 31.8792 7.90841 32.2177 7.66825 32.6163C7.42809 33.0148 7.28185 33.4628 7.24076 33.9263V67.8263C7.18456 70.1045 7.77466 72.352 8.94267 74.3087C10.1107 76.2655 11.8088 77.8516 13.8407 78.8833H13.8318L7.06474 74.9763C5.05486 73.9379 3.37791 72.3546 2.22575 70.4077C1.07359 68.4608 0.492749 66.2289 0.549721 63.9673V30.0643C0.592472 29.6008 0.739649 29.1529 0.980019 28.7542C1.22039 28.3556 1.54778 28.0165 1.93778 27.7623Z' fill='#1B69FF'/><path d='M29.7217 82.848C30.7427 82.848 31.3877 82.812 31.4897 82.804C31.765 82.7838 32.0313 82.6981 32.2667 82.554C32.5108 82.4085 32.7321 82.2279 32.9237 82.018C33.9237 80.927 57.2847 55.2 57.2827 39.256V5.35597C57.3009 5.09252 57.2481 4.829 57.1298 4.59294C57.0114 4.35688 56.8318 4.15692 56.6097 4.01396L49.9268 0.154982L49.8927 0.136977C49.656 0.0222825 49.3918 -0.0237982 49.1302 0.00395087C48.8687 0.0316999 48.6201 0.132151 48.4127 0.293959C39.2647 5.57496 30.7648 7.97597 26.2648 6.54597C25.8219 6.48005 25.3695 6.5541 24.9708 6.75777C24.5721 6.96143 24.2469 7.28453 24.0408 7.68196C19.4358 14.465 10.8597 21.976 1.66271 27.282C1.18861 27.5838 0.791311 27.9919 0.502311 28.4739C0.21331 28.9559 0.0405153 29.4986 -0.0023279 30.059V63.964C-0.0654016 66.3159 0.534481 68.6382 1.72863 70.6654C2.92278 72.6926 4.66308 74.343 6.75072 75.428L6.78869 75.452L13.5558 79.36C13.5824 79.375 13.6101 79.3881 13.6387 79.399C19.0877 82.463 26.3937 82.848 29.7217 82.848ZM49.4017 1.13096L56.0568 4.97398C56.1168 5.00898 56.1787 5.14199 56.1777 5.35799V39.258C56.1777 54.778 33.0947 80.197 32.1097 81.271C31.9932 81.4007 31.8584 81.5129 31.7097 81.604C31.6232 81.6586 31.5254 81.6929 31.4237 81.704C30.9987 81.73 20.9517 82.2869 14.1107 78.4039C14.087 78.3901 14.0623 78.3781 14.0367 78.368L7.38171 74.524L7.34276 74.499C5.41809 73.5079 3.81188 71.9942 2.70849 70.1316C1.6051 68.269 1.04921 66.1331 1.10473 63.9689V30.069C1.14758 29.7025 1.26935 29.3497 1.46166 29.0348C1.65398 28.7199 1.91228 28.4505 2.21874 28.245C11.5487 22.861 20.2627 15.223 24.9547 8.31099C25.3187 7.77499 25.7648 7.55598 25.9318 7.61098C30.7158 9.13398 39.5527 6.69396 48.9927 1.24296C49.1927 1.11196 49.3217 1.09296 49.3677 1.12196C49.3788 1.12432 49.3909 1.12733 49.4017 1.13096Z' fill='#005BEA'/><path d='M31.9861 52.2274L46.9922 26.0274L44.9622 24.8594L31.9851 47.5594L23.9851 42.9484L21.9541 46.4594L31.9861 52.2274Z' fill='#1B69FF'/></svg>

<svg xmlns="http://www.w3.org/2000/svg" width="58" height="83" fill="none" viewBox="0 0 58 83"><path fill="#fff" d="m49.65.637 6.683 3.859a.94.94 0 0 1 .4.864v33.9c0 15.724-23.217 41.3-24.21 42.385a2.4 2.4 0 0 1-.533.438c-.16.1-.341.159-.53.174-.642.039-10.67.572-17.618-3.375v.005l-6.768-3.908A12.05 12.05 0 0 1 .56 63.969v-33.9a3.08 3.08 0 0 1 1.388-2.3c9.27-5.347 17.911-12.921 22.558-19.767.47-.691 1.125-1.066 1.6-.92 4.64 1.477 13.277-.923 22.62-6.32a.87.87 0 0 1 .933-.118z"/><path fill="#1b69ff" d="M1.938 27.762c9.27-5.348 17.91-12.922 22.558-19.768.47-.69 1.125-1.066 1.6-.92 4.639 1.477 13.277-.923 22.62-6.319a.86.86 0 0 1 .934-.119l6.682 3.86a.87.87 0 0 0-.924.122c-9.348 5.4-17.98 7.8-22.623 6.318-.472-.148-1.13.231-1.6.921-4.646 6.845-13.286 14.42-22.558 19.77a3.06 3.06 0 0 0-1.386 2.3v33.9a12.07 12.07 0 0 0 6.6 11.056h-.01l-6.766-3.907A12.05 12.05 0 0 1 .55 63.967V30.064a3.09 3.09 0 0 1 1.388-2.302"/><path fill="#005bea" d="M29.722 82.848c1.02 0 1.666-.036 1.768-.044a1.7 1.7 0 0 0 .777-.25 2.9 2.9 0 0 0 .657-.536c1-1.091 24.36-26.818 24.359-42.762v-33.9a1.48 1.48 0 0 0-.673-1.342L49.927.155l-.034-.018a1.41 1.41 0 0 0-1.48.157c-9.148 5.281-17.648 7.682-22.148 6.252a2.15 2.15 0 0 0-2.224 1.136c-4.605 6.783-13.181 14.294-22.378 19.6a3.62 3.62 0 0 0-1.665 2.777v33.905A12.54 12.54 0 0 0 6.75 75.428l.038.024 6.767 3.908a1 1 0 0 0 .083.039c5.449 3.064 12.755 3.449 16.083 3.449m19.68-81.717 6.655 3.843c.06.035.122.168.12.384v33.9c0 15.52-23.082 40.939-24.067 42.013q-.177.196-.4.333a.7.7 0 0 1-.286.1c-.425.026-10.472.583-17.313-3.3a1 1 0 0 0-.074-.036l-6.655-3.844-.04-.025a11.51 11.51 0 0 1-6.237-10.53v-33.9a2.55 2.55 0 0 1 1.114-1.824c9.33-5.384 18.044-13.022 22.736-19.934.364-.536.81-.755.977-.7 4.784 1.523 13.62-.917 23.06-6.368.2-.131.33-.15.376-.121z"/><path fill="#1b69ff" d="m31.986 52.227 15.006-26.2-2.03-1.168-12.977 22.7-8-4.61-2.03 3.51z"/></svg>
